X:1
T:Title
L:1/8
Q:1/4=100
M:4/4
K:Eb
V:1 treble nm="Grand Piano"
V:1
 EDC=B, C2 CD | EDC=B, C4 | FEED D2 DE | FEED DC =B,2 | G2 c2 eddc | cBAG A4 | F2 dc cBBA | %7
w: ????~???? * * * * * *|||||||
 GAGF ED C2 | C2 D2 E2 FG | A2 G_G =G4 | AGG_G GEED | EDC=B, D2 C2 |] %12
w: |||||

